icons/footer-links-4.svg

<svg width="30" height="30" viewBox="0 0 30 30" fill="none" xmlns="http://www.w3.org/2000/svg">
<path opacity="0.5" d="M15 2.5C8.1 2.5 2.5 8.1 2.5 15C2.5 21.9 8.1 27.5 15 27.5C21.9 27.5 27.5 21.9 27.5 15C27.5 8.1 21.9 2.5 15 2.5ZM20.8 11C20.6125 12.975 19.8 17.775 19.3875 19.9875C19.2125 20.925 18.8625 21.2375 18.5375 21.275C17.8125 21.3375 17.2625 20.8 16.5625 20.3375C15.4625 19.6125 14.8375 19.1625 13.775 18.4625C12.5375 17.65 13.3375 17.2 14.05 16.475C14.2375 16.2875 17.4375 13.375 17.5 13.1125C17.5087 13.0727 17.5075 13.0315 17.4966 12.9923C17.4857 12.953 17.4654 12.9171 17.4375 12.8875C17.3625 12.825 17.2625 12.85 17.175 12.8625C17.0625 12.8875 15.3125 14.05 11.9 16.35C11.4 16.6875 10.95 16.8625 10.55 16.85C10.1 16.8375 9.25 16.6 8.6125 16.3875C7.825 16.1375 7.2125 16 7.2625 15.5625C7.2875 15.3375 7.6 15.1125 8.1875 14.875C11.8375 13.2875 14.2625 12.2375 15.475 11.7375C18.95 10.2875 19.6625 10.0375 20.1375 10.0375C20.2375 10.0375 20.475 10.0625 20.625 10.1875C20.75 10.2875 20.7875 10.425 20.8 10.525C20.7875 10.6 20.8125 10.825 20.8 11Z" fill="white"/>
<path fill-rule="evenodd" clip-rule="evenodd" d="M19.3874 19.9871C19.7999 17.7746 20.6124 12.9746 20.7999 10.9996C20.8065 10.9075 20.8026 10.8015 20.7994 10.7108C20.7964 10.6293 20.794 10.5601 20.7999 10.5246C20.7874 10.4246 20.7499 10.2871 20.6249 10.1871C20.4749 10.0621 20.2374 10.0371 20.1374 10.0371C19.6624 10.0371 18.9499 10.2871 15.4749 11.7371C14.2624 12.2371 11.8374 13.2871 8.18738 14.8746C7.59988 15.1121 7.28738 15.3371 7.26238 15.5621C7.21755 15.9544 7.70527 16.1055 8.37419 16.3127C8.45135 16.3366 8.53093 16.3613 8.61238 16.3871C9.24988 16.5996 10.0999 16.8371 10.5499 16.8496C10.9499 16.8621 11.3999 16.6871 11.8999 16.3496C15.3124 14.0496 17.0624 12.8871 17.1749 12.8621C17.1847 12.8607 17.1946 12.8592 17.2047 12.8576C17.2845 12.8451 17.3708 12.8316 17.4374 12.8871C17.4653 12.9167 17.4856 12.9527 17.4965 12.9919C17.5074 13.0311 17.5086 13.0724 17.4999 13.1121C17.4502 13.3206 15.4217 15.2005 14.4948 16.0594C14.2547 16.282 14.0885 16.436 14.0499 16.4746C13.9538 16.5724 13.8561 16.6651 13.7621 16.7545C13.1587 17.3276 12.7042 17.7592 13.7749 18.4621C14.3031 18.8101 14.7232 19.0963 15.1473 19.3853C15.5762 19.6775 16.0093 19.9726 16.5624 20.3371C16.7028 20.4299 16.8373 20.5257 16.9683 20.6191C17.4901 20.9912 17.9579 21.3246 18.5374 21.2746C18.8624 21.2371 19.2124 20.9246 19.3874 19.9871Z" fill="white"/>
</svg>

<svg xmlns="http://www.w3.org/2000/svg" width="30" height="30" fill="none"><path fill="#fff" d="M15 2.5C8.1 2.5 2.5 8.1 2.5 15S8.1 27.5 15 27.5 27.5 21.9 27.5 15 21.9 2.5 15 2.5m5.8 8.5c-.187 1.975-1 6.775-1.413 8.988-.175.937-.524 1.25-.85 1.287-.724.063-1.274-.475-1.974-.937-1.1-.726-1.725-1.175-2.788-1.876-1.238-.812-.437-1.262.275-1.987.188-.187 3.387-3.1 3.45-3.363a.25.25 0 0 0-.062-.225c-.075-.062-.175-.037-.263-.024-.113.024-1.863 1.187-5.275 3.487-.5.337-.95.512-1.35.5-.45-.013-1.3-.25-1.937-.463-.788-.25-1.4-.387-1.35-.825.024-.224.337-.45.925-.687 3.65-1.588 6.074-2.637 7.287-3.137 3.475-1.45 4.188-1.7 4.663-1.7.1 0 .337.024.487.15.125.1.163.237.175.337-.012.075.012.3 0 .475" opacity=".5"/><path fill="#fff" fill-rule="evenodd" d="M19.387 19.987C19.8 17.775 20.612 12.975 20.8 11c.006-.092.003-.198 0-.29a1 1 0 0 1 0-.185.5.5 0 0 0-.175-.338c-.15-.125-.388-.15-.488-.15-.475 0-1.187.25-4.662 1.7-1.213.5-3.638 1.55-7.288 3.138-.587.237-.9.462-.925.687-.044.392.443.543 1.112.75l.238.075c.638.213 1.488.45 1.938.463.4.012.85-.163 1.35-.5 3.412-2.3 5.162-3.463 5.275-3.488l.03-.004c.08-.013.166-.026.232.03a.25.25 0 0 1 .063.224c-.05.209-2.078 2.089-3.005 2.947-.24.223-.406.377-.445.416q-.146.145-.288.28c-.603.573-1.058 1.004.013 1.707.528.348.948.634 1.372.923.43.292.862.588 1.415.952q.21.141.406.282c.522.372.99.706 1.57.656.324-.038.674-.35.85-1.288" clip-rule="evenodd"/></svg>
